src/icons/icons_set_01/021-info.svg

<svg height="50" viewBox="0 0 50 50" width="50" xmlns="http://www.w3.org/2000/svg"><g fill="none" fill-rule="nonzero"><g fill="#000" transform="translate(19 12)"><path d="m9.87122674 21.8228417c-.51627005.1706705-1.05322872.2696444-1.59604302.2941877-.4059469 0-.57095409-.0853144-.62206252-.1220879-.25846259-.1809254-.73012032-.5192412.08177348-2.1666922l1.53617315-3.0889706c.91119017-1.8313183 1.04553227-3.6023281.37674209-4.989423-.54759024-1.1326225-1.59604302-1.91221985-2.9496861-2.1902272-.48407091-.09805762-.97670214-.14684389-1.47046232-.1456229-1.75852185.0151142-3.46071032.626567-4.83193629 1.7357073-.27516746.2442195-.34055422.6503254-.15611979.9696332.18443444.3193078.56723339.4627316.91398469.3424438.51566158-.1710938 1.05219641-.2700802 1.59458278-.2941877.40448666 0 .56657337.0853145.61768179.120617.25846259.1823963.740342.525125-.078853 2.1681632l-1.53471291 3.0919124c-.9126504 1.8342602-1.0455323 3.60527-.37674209 4.989423.54613 1.1340935 1.59312254 1.9122199 2.9496861 2.1902272.48080976.096953.96989289.1462197 1.46024064.1470939 1.76024428-.0160097 3.46367617-.6296126 4.83485678-1.7415911.2753791-.2436777.3414587-.649406.1578087-.9689437-.1836501-.3195377-.5658497-.4638347-.91275312-.3446042z"/><path d="m12.4222671 3.99506863c0 2.13573869-1.7187666 3.86709699-3.83897261 3.86709699-2.12020605 0-3.83897265-1.7313583-3.83897265-3.86709699 0-2.1357387 1.7187666-3.86709699 3.83897265-3.86709699 2.12020601 0 3.83897261 1.73135829 3.83897261 3.86709699z"/></g><path d="m45.8565647 25c0 11.5187625-9.3378022 20.8565647-20.8565647 20.8565647-11.5187626 0-20.85656467-9.3378022-20.85656467-20.8565647 0-11.5187626 9.33780207-20.85656467 20.85656467-20.85656467 5.5315049 0 10.8364537 2.19738176 14.7478183 6.10874637 3.9113646 3.9113646 6.1087464 9.2163134 6.1087464 14.7478183z" stroke="#000" stroke-width="2"/></g></svg>

<?xml version="1.0" encoding="UTF-8"?>
<svg width="50px" height="50px" viewBox="0 0 50 50" version="1.1" xmlns="http://www.w3.org/2000/svg" xmlns:xlink="http://www.w3.org/1999/xlink">
    <!-- Generator: Sketch 52.2 (67145) - http://www.bohemiancoding.com/sketch -->
    <title>021-info</title>
    <desc>Created with Sketch.</desc>
    <g id="021-info" stroke="none" stroke-width="1" fill="none" fill-rule="evenodd">
        <g id="Group" transform="translate(19.000000, 12.000000)" fill="#000000" fill-rule="nonzero">
            <g id="044-info">
                <g id="ICONSET-01">
                    <g id="044-info">
                        <path d="M9.87122674,21.8228417 C9.35495669,21.9935122 8.81799802,22.0924861 8.27518372,22.1170294 C7.86923682,22.1170294 7.70422963,22.031715 7.6531212,21.9949415 C7.39465861,21.8140161 6.92300088,21.4757003 7.73489468,19.8282493 L9.27106783,16.7392787 C10.182258,14.9079604 10.3166001,13.1369506 9.64780992,11.7498557 C9.10021968,10.6172332 8.0517669,9.83763585 6.69812382,9.5596285 C6.21405291,9.46157088 5.72142168,9.41278461 5.2276615,9.4140056 C3.46913965,9.4291198 1.76695118,10.0405726 0.395725214,11.1497129 C0.120557746,11.3939324 0.055170991,11.8000383 0.239605424,12.1193461 C0.424039857,12.4386539 0.806838813,12.5820777 1.15359011,12.4617899 C1.66925169,12.2906961 2.20578652,12.1917097 2.74817289,12.1676022 C3.15265955,12.1676022 3.31474626,12.2529167 3.36585468,12.2882192 C3.62431727,12.4706155 4.10619668,12.8133442 3.28700168,14.4563824 L1.75228877,17.5482948 C0.839638369,19.382555 0.706756471,21.1535648 1.37554668,22.5377178 C1.92167668,23.6718113 2.96866922,24.4499377 4.32523278,24.727945 C4.80604254,24.824898 5.29512567,24.8741647 5.78547342,24.8750389 C7.5457177,24.8590292 9.24914959,24.2454263 10.6203302,23.1334478 C10.8957093,22.8897701 10.9617889,22.4840418 10.7781389,22.1645041 C10.5944888,21.8449664 10.2122892,21.7006694 9.86538578,21.8198999 L9.87122674,21.8228417 Z" id="Shape"></path>
                        <path d="M12.4222671,3.99506863 C12.4222671,6.13080732 10.7035005,7.86216562 8.58329449,7.86216562 C6.46308844,7.86216562 4.74432184,6.13080732 4.74432184,3.99506863 C4.74432184,1.85932993 6.46308844,0.127971639 8.58329449,0.127971639 C10.7035005,0.127971639 12.4222671,1.85932993 12.4222671,3.99506863 Z" id="Shape"></path>
                    </g>
                </g>
            </g>
        </g>
        <path d="M45.8565647,25 C45.8565647,36.5187625 36.5187625,45.8565647 25,45.8565647 C13.4812374,45.8565647 4.14343533,36.5187625 4.14343533,25 C4.14343533,13.4812374 13.4812374,4.14343533 25,4.14343533 C30.5315049,4.14343533 35.8364537,6.34081709 39.7478183,10.2521817 C43.6591829,14.1635463 45.8565647,19.4684951 45.8565647,25 Z" id="Shape-path" stroke="#000000" stroke-width="2" fill-rule="nonzero"></path>
    </g>
</svg>
